src/assets/filled/EmptyWalletRemove.svg

<svg width="24" height="24" viewBox="0 0 24 24"  xmlns="http://www.w3.org/2000/svg">
<path d="M14.85 3.94999V7.74999H13.35V3.94999C13.35 3.67999 13.11 3.54999 12.95 3.54999C12.9 3.54999 12.85 3.55999 12.8 3.57999L4.87 6.56999C4.34 6.76999 4 7.26999 4 7.83999V8.50999C3.09 9.18999 2.5 10.28 2.5 11.51V7.83999C2.5 6.64999 3.23 5.58999 4.34 5.16999L12.28 2.16999C12.5 2.08999 12.73 2.04999 12.95 2.04999C13.95 2.04999 14.85 2.85999 14.85 3.94999Z" />
<path d="M21.4999 14.5V15.5C21.4999 15.77 21.2899 15.99 21.0099 16H19.5499C19.0199 16 18.5399 15.61 18.4999 15.09C18.4699 14.78 18.5899 14.49 18.7899 14.29C18.9699 14.1 19.2199 14 19.4899 14H20.9999C21.2899 14.01 21.4999 14.23 21.4999 14.5Z" />
<path d="M5 15C4.06 15 3.19 15.33 2.5 15.88C1.58 16.61 1 17.74 1 19C1 19.75 1.21 20.46 1.58 21.06C2.27 22.22 3.54 23 5 23C6.01 23 6.93 22.63 7.63 22C7.94 21.74 8.21 21.42 8.42 21.06C8.79 20.46 9 19.75 9 19C9 16.79 7.21 15 5 15ZM3.42 18.46C3.13 18.17 3.13 17.69 3.42 17.4C3.72 17.11 4.19 17.11 4.49 17.4L5.01 17.93L5.51 17.42C5.81 17.13 6.28 17.13 6.58 17.42C6.87 17.72 6.87 18.19 6.58 18.49L6.07 18.99L6.6 19.51C6.89 19.81 6.89 20.28 6.6 20.58C6.45 20.72 6.26 20.79 6.07 20.79C5.88 20.79 5.69 20.72 5.54 20.58L5.01 20.05L4.46 20.6C4.31 20.75 4.12 20.82 3.93 20.82C3.74 20.82 3.55 20.75 3.4 20.6C3.11 20.31 3.11 19.83 3.4 19.54L3.95 18.99L3.42 18.46Z" />
<path d="M19.48 12.95H20.5C21.05 12.95 21.5 12.5 21.5 11.95V11.51C21.5 9.44 19.81 7.75 17.74 7.75H6.26C5.41 7.75 4.63 8.03 4 8.51C3.09 9.19 2.5 10.28 2.5 11.51V13.29C2.5 13.67 2.9 13.91 3.26 13.79C3.82 13.6 4.41 13.5 5 13.5C8.03 13.5 10.5 15.97 10.5 19C10.5 19.72 10.31 20.51 10.01 21.21C9.85 21.57 10.1 22 10.49 22H17.74C19.81 22 21.5 20.31 21.5 18.24V18.05C21.5 17.5 21.05 17.05 20.5 17.05H19.63C18.67 17.05 17.75 16.46 17.5 15.53C17.3 14.77 17.54 14.03 18.04 13.55C18.41 13.17 18.92 12.95 19.48 12.95ZM14 12.75H9C8.59 12.75 8.25 12.41 8.25 12C8.25 11.59 8.59 11.25 9 11.25H14C14.41 11.25 14.75 11.59 14.75 12C14.75 12.41 14.41 12.75 14 12.75Z" />
</svg>

<?xml version="1.0" encoding="UTF-8"?>
<svg width="24" height="24" viewBox="0 0 24 24" xmlns="http://www.w3.org/2000/svg">
 <path d="m14.85 3.95v3.8h-1.5v-3.8c0-0.27-0.24-0.4-0.4-0.4-0.05 0-0.1 0.01-0.15 0.03l-7.93 2.99c-0.53 0.2-0.87 0.7-0.87 1.27v0.67c-0.91 0.68-1.5 1.77-1.5 3v-3.67c0-1.19 0.73-2.25 1.84-2.67l7.94-3c0.22-0.08 0.45-0.12 0.67-0.12 1 0 1.9 0.81 1.9 1.9z"/>
 <path d="m21.5 14.5v1c0 0.27-0.21 0.49-0.49 0.5h-1.46c-0.53 0-1.01-0.39-1.05-0.91-0.03-0.31 0.09-0.6 0.29-0.8 0.18-0.19 0.43-0.29 0.7-0.29h1.51c0.29 0.01 0.5 0.23 0.5 0.5z"/>
 <path d="m5 15c-0.94 0-1.81 0.33-2.5 0.88-0.92 0.73-1.5 1.86-1.5 3.12 0 0.75 0.21 1.46 0.58 2.06 0.69 1.16 1.96 1.94 3.42 1.94 1.01 0 1.93-0.37 2.63-1 0.31-0.26 0.58-0.58 0.79-0.94 0.37-0.6 0.58-1.31 0.58-2.06 0-2.21-1.79-4-4-4zm-1.58 3.46c-0.29-0.29-0.29-0.77 0-1.06 0.3-0.29 0.77-0.29 1.07 0l0.52 0.53 0.5-0.51c0.3-0.29 0.77-0.29 1.07 0 0.29 0.3 0.29 0.77 0 1.07l-0.51 0.5 0.53 0.52c0.29 0.3 0.29 0.77 0 1.07-0.15 0.14-0.34 0.21-0.53 0.21s-0.38-0.07-0.53-0.21l-0.53-0.53-0.55 0.55c-0.15 0.15-0.34 0.22-0.53 0.22s-0.38-0.07-0.53-0.22c-0.29-0.29-0.29-0.77 0-1.06l0.55-0.55-0.53-0.53z"/>
 <path d="m19.48 12.95h1.02c0.55 0 1-0.45 1-1v-0.44c0-2.07-1.69-3.76-3.76-3.76h-11.48c-0.85 0-1.63 0.28-2.26 0.76-0.91 0.68-1.5 1.77-1.5 3v1.78c0 0.38 0.4 0.62 0.76 0.5 0.56-0.19 1.15-0.29 1.74-0.29 3.03 0 5.5 2.47 5.5 5.5 0 0.72-0.19 1.51-0.49 2.21-0.16 0.36 0.09 0.79 0.48 0.79h7.25c2.07 0 3.76-1.69 3.76-3.76v-0.19c0-0.55-0.45-1-1-1h-0.87c-0.96 0-1.88-0.59-2.13-1.52-0.2-0.76 0.04-1.5 0.54-1.98 0.37-0.38 0.88-0.6 1.44-0.6zm-5.48-0.2h-5c-0.41 0-0.75-0.34-0.75-0.75s0.34-0.75 0.75-0.75h5c0.41 0 0.75 0.34 0.75 0.75s-0.34 0.75-0.75 0.75z"/>
</svg>
